X:1
T:TMEA All-State Etude #1
T:TMEA All-State Etude #1 2019-2020
T:A Major
L:1/8
Q:1/4=90
M:3/4
K:A
V:1 bass nm="Euphonium" snm="Euph."
V:1
"^Tempo di Polacca"!f! A,/>A,/A,- A,(3(C/B,/A,/) .E,(3(A,/B,/C/) | %1
 .B,(3(E,/^D,/E,/ B,).G, .E,(3(^E,/D,/E,/) | F,/>F,/F,- F,(3(A,/G,/F,/) .C,(3(F,/G,/A,/) | %3
 .G,(3(C,/^B,,/C,/ G,).E, .C,!<(!(3(D,/^D,/E,/ | F,)!<)!!mf!.D/.C/ (!>!^A,3 B,) | %5
 .E,.C/.B,/ (!>!G,3 A,) | (A,/G,/B,/).D/ .F !>!F2 .F | %7
 (F/E/)(E/^D/) (D3/2E/4F/4 E/)!<(!.C/.A,/.E,/!<)! |!f! (F,/D/)(D/C/) (!>!^A,3 B,) | %9
 (E,/C/)(C/B,/) (!>!G,3 A,) |({/A,} G,/F,/E,/).F,/ .G,/.A,/.B,/.C/ .D.G, | %11
 .A,/(E,/C/)z/4B,/4 (B,2 A,) z ||!ff! C/>C/C- C(3(D/E/D/) .C(3(B,/C/B,/) | %13
 .A,(3(C/^B,/C/) .G,(3(C/B,/C/) .F,/.G,/.A,/.^A,/ | B,/>B,/B,- B,(3(C/^D/C/) .B,(3(A,/B,/A,/) | %15
 .G,(3(B,/^A,/B,/) .F,!>(!(3(B,/A,/B,/)!>)!!mf! !breath!E,.E |{/F} (E/D/).B,/.F,/ C3 .B, | %17
{/C} (B,/A,/).E,/.C,/ G,3 .F, |{/G,} (F,/E,/).G,/.A,/ .^A, B,2 !>!^B, | %19
 (^B,/C/).A,/.F,/ E,!<(!.A,,/.C,/ .E,/.A,/.C/.E/!<)! |!f! (E/D/).B,/.F,/ C(3(B,/C/B,/) .^E,.B, | %21
 (B,/A,/).E,/.C,/ .G,(3(F,/G,/F,/){/.A,} .G,.F, | %22
 (F,/E,/D/).B,/ .G,/.E,/.^D,/.E,/ .^E,/.F,/.=G,/.^G,/ | (A,/E,/C/)z/4B,/4 (B,2 A,) z || %24
[K:D]"^TRIO"!p! F,3 (F,G,^G,) | (A,.F) (E3 D) | A,3 (F,{/A,}G,F,) | (F,>E,) B,,4 | G,3 (G,A,^A,) | %29
 (B,.G) (F3 E) | (DCE)!<(!(G,A,B,)!<)! | ^D,2- D,(3E,/F,/E,/ C,!>!A,, |!<(! F,3 (F,G,^G,) | %33
 (A,.F) (E3 D) | G,3 (G,A,^A,) | (B,.G) (F3 E)!<)! |!f!({DE)} (D/C/E/)z/4G,/4 (C3 B,) | %37
{B,C} (B,/A,/D/)z/4F,/4!>(! (B,3 A,)!>)! |!p! (^A,/B,/).E, (F,/G,/).B,, (^G,/A,/).C, | %39
{/E,} (D,/C,/D,/).E,/!<(! .F,/.G,/.A,/.B,/ .C/.D/.E/.D/!<)! |!f!({DE)} (D/C/E/)z/4G,/4 (C3 B,) | %41
{B,C} (B,/A,/D/)z/4F,/4!>(! (B,3 A,)!>)! | (^A,/B,/).E,/.F,/ (F,/G,/).B,,/.E,/ (D,/C,/)(B,,/C,/) | %43
 .D,/(A,,/F,/)z/4E,/4 (E,2{F,E,} D,) z |] %44

